X: 176
T: the Managers Contention
B: 204 Favourite Country Dances
N: Published by Straight & Skillern, London ca.1775
F: http://imslp.org/wiki/204_Favourite_Country_Dances_(Various) p.88 #176
Z: 2014 John Chambers <jc:trillian.mit.edu>
M: C|
L: 1/8
K: A
% - - - - - - - - - - - - - - - - - - - - - - - - -
E |\
ABcd eaec | (3(fga) .e.c (3(fga) .e.c |\
ABcd eaec | dfec AA/A/ A :|
|: B |\
eaec eaec | (3(def) .B.B (3(def) .B.B |\
eaec eaec | dfec AA/A/ A :|
% - - - - - - - - - - - - - - - - - - - - - - - - -
%%begintext align
%% Right hands across at top .| Left hands
%% back again .|. Cast off one Cu. lead thro'
%% the 3d Cu. and cast up :|. Right and Left
%% at top :|:
%%endtext

%%sep 1 1 500
%%sep 1 1 500
